X:1002
T:Adam Lay Ybounden
R:Air
C:Trad, 15th Century
O:England
Z:Paul Hardy's Xmas Tunebook 2019 (see www.paulhardy.net). Creative Commons cc by-nc-sa licenced.
M:3/4
L:1/8
Q:1/4=110
K:Am
"Am"A3 A GA|"Em"E2 E4|"Am"A3 c BA|"Em"E6|"Am"c2 B2 c2|"F"AA A4|"G"GG "D"A2 ^F2|"Em"E6|
"Am"A3 A GA|"Em"E2 E2 E2|"Am"A3 c BA|"Em"E6|"C"G2 G2 A2|"F"GF F4|"C"EE "F"F2 A2|"E"E6|
"Am"c2 cc Bc|"G"GG G3 G|"C"c3 e dc|"F"A6|"D7"dd cc d2|"G"G2 G3 A|"Em"B2 "C"cd e2|"G"d6|
"C"c2 c2 BA|"G"G4 G2|"Am"e3 e dc|"G"d6|d3 d "Am"ec|"G"d2 d2 "Am"Ac|"Em"B3 A G2|"Am"A6|]
W:Adam lay ybounden, bounden in a bond;
W:Four thousand winter, thought he not too long.
W:And all was for an apple, an apple that he took,
W:As clerkès finden written in their book.
W:
W:Ne had the apple taken been,the apple taken been,
W:Ne had never Our Lady a been heavenly queen.
W:Blessed be the time that apple taken was.
W:Therefore we moun singen Deo gratias!

